img/dark/f8.svg

<?xml version="1.0" encoding="UTF-8"?>
<svg width="24px" height="24px" viewBox="0 0 24 24" version="1.1" xmlns="http://www.w3.org/2000/svg" xmlns:xlink="http://www.w3.org/1999/xlink">
    <!-- Generator: Sketch 60.1 (88133) - https://sketch.com -->
    <title>f8_dark</title>
    <desc>Created with Sketch.</desc>
    <g id="f8_dark" stroke="none" stroke-width="1" fill="none" fill-rule="evenodd">
        <path d="M12,4 C18.5586379,4 24,7.46268496 24,12 C24,16.537315 18.5586379,20 12,20 C5.44136207,20 0,16.537315 0,12 C0,7.46268496 5.44136207,4 12,4 Z M12,6 C6.40837343,6 2,8.80532855 2,12 C2,15.1946715 6.40837343,18 12,18 C17.5916266,18 22,15.1946715 22,12 C22,8.80532855 17.5916266,6 12,6 Z M12,8 C14.209139,8 16,9.790861 16,12 C16,14.209139 14.209139,16 12,16 C9.790861,16 8,14.209139 8,12 C8,9.790861 9.790861,8 12,8 Z M13,9 C12.4477153,9 12,9.44771525 12,10 C12,10.5522847 12.4477153,11 13,11 C13.5522847,11 14,10.5522847 14,10 C14,9.44771525 13.5522847,9 13,9 Z" id="形状结合" fill="#FFFFFF"></path>
    </g>
</svg>

<svg xmlns="http://www.w3.org/2000/svg" width="24" height="24" xmlns:v="https://vecta.io/nano"><path d="M12 4c6.56 0 12 3.463 12 8s-5.44 8-12 8-12-3.463-12-8 5.44-8 12-8zm0 2C6.408 6 2 8.805 2 12s4.408 6 10 6 10-2.805 10-6-4.408-6-10-6zm0 2a4 4 0 1 1 0 8 4 4 0 1 1 0-8zm1 1a1 1 0 1 0 0 2 1 1 0 1 0 0-2z" fill="#fff" fill-rule="evenodd"/></svg>
